images/PARTNERS/SVG/Icon Perfiles.svg

<svg width="85" height="85" viewBox="0 0 85 85" fill="none" xmlns="http://www.w3.org/2000/svg">
<circle cx="42.5" cy="42.5" r="42.5" fill="white"/>
<path d="M68.3982 14.4038C75.6779 21.3267 80.2158 31.1063 80.2158 41.9464C80.2158 62.9351 63.2005 79.9504 42.2118 79.9504C21.2231 79.9504 4.20782 62.9351 4.20782 41.9464C4.20782 28.9388 10.7422 17.4584 20.7099 10.6064" stroke="url(#paint0_linear_57_15)" stroke-width="2" stroke-miterlimit="10"/>
<path d="M64.3156 16.1877C67.3913 16.1877 69.8847 13.6943 69.8847 10.6186C69.8847 7.54284 67.3913 5.04945 64.3156 5.04945C61.2398 5.04945 58.7464 7.54284 58.7464 10.6186C58.7464 13.6943 61.2398 16.1877 64.3156 16.1877Z" stroke="url(#paint1_linear_57_15)" stroke-width="2" stroke-miterlimit="10"/>
<path d="M53.1365 31.2809V24.0079H54.5836V31.2809H53.1365ZM50.2262 28.3652V26.9181H57.4992V28.3652H50.2262Z" fill="url(#paint2_linear_57_15)"/>
<path d="M45.9296 40.5545C49.7389 42.0127 52.3027 44.4858 53.4173 48.2457C53.7114 49.2375 53.8418 50.2959 53.8953 51.3313C53.9577 52.5375 53.2452 53.4317 52.3347 54.1661C50.4486 55.6882 48.2178 56.4407 45.8598 56.8685C42.0482 57.5593 38.3148 57.2825 34.7309 55.7874C30.844 54.1655 29.8672 52.0794 31.1195 48.1398C32.1818 44.7979 34.3738 42.4096 37.6265 40.9603C37.9009 40.8379 38.177 40.7194 38.5814 40.5429C36.314 38.953 35.1673 36.8884 35.2894 34.224C35.3793 32.2597 36.2375 30.6631 37.7384 29.3825C40.5738 26.9634 45.1355 27.3157 47.5789 30.1322C49.9279 32.8391 50.2181 37.5009 45.9296 40.5545ZM42.1045 55.7665C45.0765 55.6617 47.9495 55.1551 50.5813 53.6318C52.0901 52.7586 52.5923 51.5535 52.3066 49.8924C51.5036 45.2251 47.3652 41.7216 42.6606 41.5287C38.0679 41.3401 33.3948 44.3998 32.3112 49.5263C31.8045 51.9239 32.2701 52.8666 34.515 54.0426C36.8769 55.2797 39.4524 55.6479 42.1045 55.7665ZM42.2619 39.9823C45.2682 39.9784 47.7583 37.5913 47.7741 34.6975C47.7904 31.7757 45.2323 29.2424 42.267 29.2435C39.2444 29.2446 36.801 31.6825 36.8111 34.6882C36.8218 37.6652 39.2117 39.9861 42.2619 39.9823Z" fill="url(#paint3_linear_57_15)"/>
<defs>
<linearGradient id="paint0_linear_57_15" x1="4.20782" y1="79.952" x2="80.2158" y2="79.952" gradientUnits="userSpaceOnUse">
<stop stop-color="#1723FF"/>
<stop offset="1" stop-color="#30E35E"/>
</linearGradient>
<linearGradient id="paint1_linear_57_15" x1="58.7464" y1="16.188" x2="69.8847" y2="16.188" gradientUnits="userSpaceOnUse">
<stop stop-color="#1723FF"/>
<stop offset="1" stop-color="#30E35E"/>
</linearGradient>
<linearGradient id="paint2_linear_57_15" x1="30.606" y1="57.2277" x2="53.8991" y2="57.2277" gradientUnits="userSpaceOnUse">
<stop stop-color="#1723FF"/>
<stop offset="1" stop-color="#30E35E"/>
</linearGradient>
<linearGradient id="paint3_linear_57_15" x1="30.606" y1="57.2277" x2="53.8991" y2="57.2277" gradientUnits="userSpaceOnUse">
<stop stop-color="#1723FF"/>
<stop offset="1" stop-color="#30E35E"/>
</linearGradient>
</defs>
</svg>

<svg width="85" height="85" fill="none" xmlns="http://www.w3.org/2000/svg"><circle cx="42.5" cy="42.5" r="42.5" fill="#fff"/><path d="M68.398 14.404c7.28 6.923 11.818 16.702 11.818 27.542 0 20.99-17.015 38.004-38.004 38.004-20.989 0-38.004-17.015-38.004-38.004 0-13.007 6.534-24.488 16.502-31.34" stroke="url(#a)" stroke-width="2" stroke-miterlimit="10"/><path d="M64.316 16.188a5.57 5.57 0 1 0 0-11.139 5.57 5.57 0 0 0 0 11.139Z" stroke="url(#b)" stroke-width="2" stroke-miterlimit="10"/><path d="M53.136 31.28v-7.272h1.448v7.273h-1.448Zm-2.91-2.915v-1.447H57.5v1.447h-7.273Z" fill="url(#c)"/><path d="M45.93 40.554c3.809 1.459 6.373 3.932 7.487 7.692.294.991.425 2.05.478 3.085.063 1.206-.65 2.1-1.56 2.835-1.886 1.522-4.117 2.275-6.475 2.703-3.812.69-7.545.413-11.13-1.082-3.886-1.621-4.863-3.708-3.61-7.647 1.062-3.342 3.254-5.73 6.506-7.18.275-.122.551-.24.955-.417-2.267-1.59-3.414-3.655-3.292-6.319.09-1.964.948-3.56 2.45-4.841 2.835-2.42 7.397-2.067 9.84.75 2.349 2.706 2.64 7.368-1.65 10.421Zm-3.825 15.212c2.972-.104 5.845-.61 8.476-2.134 1.51-.873 2.011-2.078 1.726-3.74-.803-4.667-4.942-8.17-9.646-8.363-4.593-.189-9.266 2.87-10.35 7.997-.506 2.398-.04 3.34 2.204 4.517 2.362 1.237 4.937 1.605 7.59 1.724Zm.157-15.784c3.006-.004 5.496-2.39 5.512-5.285.016-2.921-2.542-5.455-5.507-5.454-3.023.002-5.466 2.44-5.456 5.445.01 2.977 2.4 5.298 5.45 5.294Z" fill="url(#d)"/><defs><linearGradient id="a" x1="4.208" y1="79.952" x2="80.216" y2="79.952" gradientUnits="userSpaceOnUse"><stop stop-color="#1723FF"/><stop offset="1" stop-color="#30E35E"/></linearGradient><linearGradient id="b" x1="58.746" y1="16.188" x2="69.885" y2="16.188" gradientUnits="userSpaceOnUse"><stop stop-color="#1723FF"/><stop offset="1" stop-color="#30E35E"/></linearGradient><linearGradient id="c" x1="30.606" y1="57.228" x2="53.899" y2="57.228" gradientUnits="userSpaceOnUse"><stop stop-color="#1723FF"/><stop offset="1" stop-color="#30E35E"/></linearGradient><linearGradient id="d" x1="30.606" y1="57.228" x2="53.899" y2="57.228" gradientUnits="userSpaceOnUse"><stop stop-color="#1723FF"/><stop offset="1" stop-color="#30E35E"/></linearGradient></defs></svg>
